tools/download-figma-icons/icons/outlined-large/tag-electricity.svg

<svg width="64" height="64" viewBox="0 0 64 64" fill="none" xmlns="http://www.w3.org/2000/svg">
<path fill-rule="evenodd" clip-rule="evenodd" d="M35.4546 17.7325C35.4546 19.3615 34.1296 20.6865 32.4996 20.6865C30.8716 20.6865 29.5456 19.3615 29.5456 17.7325C29.5456 16.1035 30.8716 14.7785 32.4996 14.7785C34.1296 14.7785 35.4546 16.1035 35.4546 17.7325ZM33.0336 4.08747C30.8916 4.01647 28.8106 4.29647 26.8326 4.85047C21.4986 0.458467 15.2616 0.0244676 14.8916 0.00346764C14.0626 -0.0485324 13.3546 0.586468 13.3076 1.41347C13.2596 2.24047 13.8906 2.94947 14.7176 2.99747C14.7876 3.00147 19.2006 3.30747 23.4606 6.12247C17.9146 8.79447 13.6626 13.8945 12.2596 20.2885C12.0826 21.0975 12.5946 21.8975 13.4036 22.0745C14.2126 22.2575 15.0126 21.7405 15.1906 20.9305C16.4966 14.9705 20.6966 10.3025 26.0666 8.23747C27.2806 9.44047 28.3926 10.9195 29.2796 12.7325C27.6376 13.7935 26.5456 15.6355 26.5456 17.7325C26.5456 21.0155 29.2166 23.6865 32.4996 23.6865C35.7836 23.6865 38.4546 21.0155 38.4546 17.7325C38.4546 14.4495 35.7836 11.7785 32.4996 11.7785C32.4223 11.7785 32.3459 11.7836 32.2691 11.7888C32.2337 11.7912 32.1983 11.7936 32.1626 11.7955C31.3666 10.0675 30.4036 8.59347 29.3456 7.33447C30.5096 7.13447 31.7046 7.03947 32.9236 7.08647C42.2156 7.42547 49.7756 15.5705 49.7756 25.2435V39.7505C49.7756 40.5785 50.4466 41.2505 51.2756 41.2505C52.1036 41.2505 52.7756 40.5785 52.7756 39.7505V25.2435C52.7756 13.9755 43.9186 4.48547 33.0336 4.08747ZM50.501 63.9971H14.499C13.121 63.9971 12 62.8711 12 61.4871V27.9221C12 27.0941 12.671 26.4221 13.5 26.4221C14.329 26.4221 15 27.0941 15 27.9221V60.9971H50V46.9651C50 46.1371 50.671 45.4651 51.5 45.4651C52.329 45.4651 53 46.1371 53 46.9651V61.4871C53 62.8711 51.879 63.9971 50.501 63.9971ZM22.3168 57.9068C22.5758 58.0878 22.8758 58.1768 23.1738 58.1768C23.5588 58.1768 23.9408 58.0298 24.2298 57.7418L34.4798 47.5858C35.0678 47.0028 35.0718 46.0528 34.4888 45.4648C33.9058 44.8758 32.9568 44.8708 32.3678 45.4548L27.9228 49.8608L30.6608 43.8388C30.8718 43.3738 30.8328 42.8348 30.5568 42.4058C30.2808 41.9768 29.8058 41.7178 29.2958 41.7178H24.1118L29.3948 30.1038H34.9328L32.7908 34.8148C32.5968 35.2408 32.6128 35.7348 32.8358 36.1468C33.0578 36.5598 33.4598 36.8448 33.9228 36.9168L40.0478 37.8808L37.4868 40.4188C36.8988 41.0018 36.8948 41.9518 37.4778 42.5398C38.0608 43.1278 39.0108 43.1338 39.5988 42.5498L44.2648 37.9258C44.6658 37.5278 44.8098 36.9378 44.6358 36.3998C44.4618 35.8618 44.0008 35.4668 43.4418 35.3788L36.3388 34.2608L38.6288 29.2248C38.8398 28.7598 38.7998 28.2208 38.5248 27.7918C38.2488 27.3628 37.7738 27.1038 37.2628 27.1038H28.4288C27.8408 27.1038 27.3068 27.4478 27.0638 27.9828L20.4168 42.5968C20.2048 43.0618 20.2448 43.6008 20.5208 44.0298C20.7968 44.4588 21.2718 44.7178 21.7818 44.7178H26.9658L21.8088 56.0558C21.5088 56.7148 21.7228 57.4938 22.3168 57.9068Z" fill="black"/>
</svg>

<svg xmlns="http://www.w3.org/2000/svg" width="64" height="64" fill="none" viewBox="0 0 64 64"><path fill="currentColor" fill-rule="evenodd" d="M35.455 17.733a2.957 2.957 0 0 1-2.955 2.953 2.96 2.96 0 0 1-2.954-2.953 2.96 2.96 0 0 1 2.954-2.955 2.957 2.957 0 0 1 2.955 2.955M33.034 4.087a20.4 20.4 0 0 0-6.201.763C21.499.458 15.262.024 14.892.003a1.495 1.495 0 0 0-1.584 1.41 1.5 1.5 0 0 0 1.41 1.584c.07.004 4.483.31 8.743 3.125A20.6 20.6 0 0 0 12.26 20.29a1.5 1.5 0 0 0 1.144 1.785 1.496 1.496 0 0 0 1.787-1.144A17.62 17.62 0 0 1 26.067 8.237a16.5 16.5 0 0 1 3.213 4.496 5.95 5.95 0 0 0-2.734 5 5.96 5.96 0 0 0 5.954 5.953 5.96 5.96 0 0 0 5.955-5.953 5.96 5.96 0 0 0-5.955-5.955q-.117.002-.23.01l-.107.008a19.7 19.7 0 0 0-2.817-4.462c1.164-.2 2.359-.295 3.578-.248 9.292.34 16.852 8.484 16.852 18.158V39.75a1.5 1.5 0 1 0 3 0V25.244c0-11.268-8.857-20.759-19.742-21.157M50.5 63.997H14.499A2.507 2.507 0 0 1 12 61.487V27.922a1.5 1.5 0 1 1 3 0v33.075h35V46.965a1.5 1.5 0 1 1 3 0v14.522a2.507 2.507 0 0 1-2.499 2.51m-28.184-6.09a1.494 1.494 0 0 0 1.913-.165l10.25-10.156a1.5 1.5 0 0 0-2.112-2.131l-4.445 4.406 2.738-6.022a1.5 1.5 0 0 0-1.365-2.121h-5.184l5.283-11.614h5.538l-2.142 4.71a1.497 1.497 0 0 0 1.132 2.103l6.125.964-2.561 2.538a1.5 1.5 0 0 0 2.112 2.13l4.666-4.623a1.5 1.5 0 0 0-.823-2.547l-7.103-1.118 2.29-5.036a1.5 1.5 0 0 0-1.366-2.121h-8.834a1.5 1.5 0 0 0-1.365.879l-6.647 14.614a1.498 1.498 0 0 0 1.365 2.12h5.184l-5.157 11.339c-.3.659-.086 1.438.508 1.85" clip-rule="evenodd"/></svg>
